X:6
T:Smell of the Bog, The
M:C|
L:1/8
S:Darcie's TrTuneSbk Vo.2 (1998) p. 40
R:Hornpipe
Z: Wosika
K:G
|: (ge)| "G"dGBd "C"ecge| "G"dBGB dged| "D7"~c2 Ac "G"BDGB| "D7"(3ABA (3GFE D2 "C"ge|
"G"dGBd "C"ecge| "G"dBGB dgfg| "C"egce "D7"dafa| "G"gfga g2::
"G"(ga)| bg (3agf gBfB| gBfB "D7"e^c (3ded| "C"efga "G"bg"D7"af| "G"ge"D7"fd "C"efga|
"G"bg "D7"(3agf "G"gBfB| gBfB "D7"e^c (3ded| "C"egcg "D7"dafa| "G"gfga g2:|
